src/assets/images/pages/telegram.svg

<?xml version="1.0" encoding="utf-8"?>
<svg width="800px" height="800px" viewBox="0 0 32 32" version="1.1" xmlns="http://www.w3.org/2000/svg">
    <symbol id="icon" viewBox="0 0 32 32" fill="none">
        <defs>
            <style>
                .cls-1 {
                    fill: var(--color-1);
                    transition: all 0.2s ease-in-out;
                }
            </style>
        </defs>
        <path class="cls-1"
            d="M22.122 10.040c0.006-0 0.014-0 0.022-0 0.209 0 0.403 0.065 0.562 0.177l-0.003-0.002c0.116 0.101 0.194 0.243 0.213 0.403l0 0.003c0.020 0.122 0.031 0.262 0.031 0.405 0 0.065-0.002 0.129-0.007 0.193l0-0.009c-0.225 2.369-1.201 8.114-1.697 10.766-0.21 1.123-0.623 1.499-1.023 1.535-0.869 0.081-1.529-0.574-2.371-1.126-1.318-0.865-2.063-1.403-3.342-2.246-1.479-0.973-0.52-1.51 0.322-2.384 0.221-0.23 4.052-3.715 4.127-4.031 0.004-0.019 0.006-0.040 0.006-0.062 0-0.078-0.029-0.149-0.076-0.203l0 0c-0.052-0.034-0.117-0.053-0.185-0.053-0.045 0-0.088 0.009-0.128 0.024l0.002-0.001q-0.198 0.045-6.316 4.174c-0.445 0.351-1.007 0.573-1.619 0.599l-0.006 0c-0.867-0.105-1.654-0.298-2.401-0.573l0.074 0.024c-0.938-0.306-1.683-0.467-1.619-0.985q0.051-0.404 1.114-0.827 6.548-2.853 8.733-3.761c1.607-0.853 3.47-1.555 5.429-2.010l0.157-0.031zM15.93 1.025c-8.302 0.020-15.025 6.755-15.025 15.060 0 8.317 6.742 15.060 15.060 15.060s15.060-6.742 15.060-15.060c0-8.305-6.723-15.040-15.023-15.060h-0.002q-0.035-0-0.070 0z">
        </path>
    </symbol>
</svg>

<svg width="800px" height="800px" viewBox="0 0 24 24" version="1.1" xmlns="http://www.w3.org/2000/svg">
    <symbol id="icon" viewBox="0 0 24 24" fill="none">
        <defs>
            <style>
                .cls-1 {
                    fill: var(--color-1);
                    transition: all 0.2s ease-in-out;
                }
            </style>
        </defs>
        <g transform="matrix(0.664011, 0, 0, 0.664011, 1.399064, 1.319382)">
            <path class="cls-1"
                d="M 22.122 10.04 C 22.128 10.04 22.136 10.04 22.144 10.04 C 22.353 10.04 22.547 10.105 22.706 10.217 L 22.703 10.215 C 22.819 10.316 22.897 10.458 22.916 10.618 L 22.916 10.621 C 22.936 10.743 22.947 10.883 22.947 11.026 C 22.947 11.091 22.945 11.155 22.94 11.219 L 22.94 11.21 C 22.715 13.579 21.739 19.324 21.243 21.976 C 21.033 23.099 20.62 23.475 20.22 23.511 C 19.351 23.592 18.691 22.937 17.849 22.385 C 16.531 21.52 15.786 20.982 14.507 20.139 C 13.028 19.166 13.987 18.629 14.829 17.755 C 15.05 17.525 18.881 14.04 18.956 13.724 C 18.96 13.705 18.962 13.684 18.962 13.662 C 18.962 13.584 18.933 13.513 18.886 13.459 C 18.834 13.425 18.769 13.406 18.701 13.406 C 18.656 13.406 18.613 13.415 18.573 13.43 L 18.575 13.429 C 18.443 13.459 16.338 14.85 12.259 17.603 C 11.814 17.954 11.252 18.176 10.64 18.202 L 10.634 18.202 C 9.767 18.097 8.98 17.904 8.233 17.629 L 8.307 17.653 C 7.369 17.347 6.624 17.186 6.688 16.668 C 6.722 16.399 7.093 16.123 7.802 15.841 C 12.167 13.939 15.078 12.685 16.535 12.08 C 18.142 11.227 20.005 10.525 21.964 10.07 L 22.121 10.039 L 22.122 10.04 Z M 15.93 1.025 C 7.628 1.045 0.905 7.78 0.905 16.085 C 0.905 24.402 7.647 31.145 15.965 31.145 C 24.283 31.145 31.025 24.403 31.025 16.085 C 31.025 7.78 24.302 1.045 16.002 1.025 L 16 1.025 C 15.977 1.025 15.953 1.025 15.93 1.025 L 15.93 1.025 Z">
            </path>
        </g>
    </symbol>
</svg>
